X:1
T:MARIAGE D´AMOUR
T:Score
T:MARIAGE D´AMOUR
T:Music: PAUL DE SENNEVILLE
%%score { ( 1 4 ) | ( 2 3 ) }
L:1/8
Q:1/4=76
M:4/4
K:Bb
V:1 treble nm="Piano" snm="Piano."
V:4 treble 
V:2 bass 
V:3 bass 
V:1
 z4 z2 z3/2 g/ | g/a/a/b/ b/a/a/g/ g/d/d/B/ B/G/G/f/ ||[M:3/4] f/e/e/d/ e/f/e- e2 || %3
[M:4/4] z/ e/e/f/ f/g/g/a/ a/f/f/c/ c/e/e/d/ ||[M:3/4] d/c/d/e/ d4 |:[M:3/8]"^A" dG/B/d/c/ | %6
 dG/B/d/c/ | dG/B/e/d/ | eG/B/e/d/ | ee/d/e/=e/ | ff/g/f/g/ | d2 [^F,C] :| b>dd/e/ | e>ca/g/ | %14
 a>cc/d/ | dB/B/g/f/ | g>BB/c/ | c>Ad/c/ | d3 |:"^B" b>bb/c'/ | c'>ba/g/ | f>fg/f/ | d3 | %23
 bb/b/b/c'/ | c'>ba/g/ | f>fg/f/ |1,5 g3"^B" :|2,4 g3- || g3 | g3 | z3 |] %31
V:2
!ped! z D,B,D, B,D,B,D, | z D,B,D, B,D,B,G,, ||[M:3/4] z G, EG, EG, ||[M:4/4] z C,A,E, A,C,A,F,, || %4
[M:3/4] z F, [D,^F,C]4 |:[M:3/8] G,,D,B, | G,,D,B, | G,,D,B, | C,G,[B,E] | C,G,[B,E] | %10
 F,,E,[F,A,] | B,,[F,B,D]A,, :| G,,D,B, | C,G,E | F,,[E,A,]F, | B,,[F,D]A,, | G,,D,B, | A,,E,G, | %18
 D,A,^F |: G,,D,B, | C,G,[B,E] | F,,C,[E,A,] | B,,[F,D][D,^F,C] | G,,D,B, | C,G,[B,E] | %25
 F,,C,A, |1,5 G,,D,B, :|2,4 G,,D,B, || z3 | z3 | z3 |] %31
V:3
 G,,8 | G,,8 ||[M:3/4] C,6 ||[M:4/4] F,,8 ||[M:3/4] B,,6 |:[M:3/8] G,,3 | G,,3 | G,,3 | C,3 | C,3 | %10
 F,,3 | B,,3 :| G,,3 | C,3 | F,,3 | B,,3 | G,,3 | A,,3 | D,3 |: G,,3 | C,3 | F,,3 | B,,3 | G,,3 | %24
 C,3 | F,,3 |1,5 G,,3 :|2,4 x3 || x3 | x3 | x3 |] %31
V:4
 x8 | x8 ||[M:3/4] x6 ||[M:4/4] x8 ||[M:3/4] x6 |:[M:3/8] d3 | d3 | d3 | e3 | e3 | f2 z | x3 :| %12
 b3 | e3 | a3 | d2 z | g3 | c3 | d2 z |: b3 | c'3 | f3 | x3 | b3 | c'3 | f3 |1,5 x3 :|2,4 x3 || %28
 DGB | x3 | x3 |] %31

